public/img/logo-2.svg

<svg width="213" height="47" viewBox="0 0 213 47" fill="none" xmlns="http://www.w3.org/2000/svg">
    <path fill-rule="evenodd" clip-rule="evenodd" d="M23.7529 32.718C18.8544 32.718 14.7878 28.6513 14.7878 23.7529C14.7878 18.8544 18.762 14.7878 23.7529 14.7878C28.6513 14.7878 32.7179 18.762 32.7179 23.7529C32.7179 28.6513 28.6513 32.718 23.7529 32.718ZM23.7529 19.7787C21.5347 19.7787 19.7786 21.5347 19.7786 23.7529C19.7786 25.971 21.5347 27.7271 23.7529 27.7271C25.971 27.7271 27.7271 25.971 27.7271 23.7529C27.7271 21.5347 25.971 19.7787 23.7529 19.7787Z" fill="#61B2AA"/>
    <path fill-rule="evenodd" clip-rule="evenodd" d="M0 23.2907C0 42.0527 4.52875 46.5815 23.2908 46.5815C42.0527 46.5815 46.5815 42.0527 46.5815 23.2907C46.5815 4.52876 42.0527 0 23.2908 0C4.52875 0 0 4.52876 0 23.2907ZM4.99087 23.2907C4.99087 7.39389 7.39389 4.99088 23.2908 4.99088C39.1876 4.99088 41.5906 7.39389 41.5906 23.2907C41.5906 39.1876 39.1876 41.5906 23.2908 41.5906C7.39389 41.5906 4.99087 39.1876 4.99087 23.2907Z" fill="#61B2AA"/>
    <g clip-path="url(#clip0)">
        <path d="M86.8451 25.6222C86.8451 25.6222 99.7267 19.4242 99.7267 12.0469C99.7267 5.35508 93.1907 3.28906 89.092 3.28906C77.2148 3.28906 64 12.4352 64 21.332C64 29.2509 70.9454 27.5396 70.9454 27.5396C70.1695 26.6864 69.0936 24.8073 69.2793 21.8641C69.7125 14.9134 79.7664 6.87464 88.9873 6.87464C93.2716 6.87464 95.7375 8.53321 95.7375 11.0306C95.7375 15.9201 84.6363 24.4334 81.2564 25.0278C83.927 18.3025 86.9403 11.6778 88.178 10.5369C88.7492 10.0096 85.9882 8.43254 85.1218 9.22827C81.5896 12.4831 72.345 34.1116 72.2021 37.376C72.1593 38.4018 72.2783 39.1448 72.502 39.6817C71.788 38.4641 71.7975 37.0165 71.8165 36.5371C71.8737 35.262 69.2269 34.5047 69.2269 36.0002C69.2269 39.2215 70.298 44.9977 78.1193 44.9977C85.3075 44.9977 93.362 39.0585 93.362 33.0235C93.3668 26.5474 86.8451 25.6222 86.8451 25.6222ZM75.801 41.5512C74.7442 41.5512 73.9682 41.1629 73.397 40.7123C74.6585 41.369 76.4532 40.372 76.4532 40.372C75.901 39.7632 78.0241 33.3111 80.6566 26.5474C80.8994 27.1561 81.3944 27.7266 82.1656 27.7601C83.9079 27.8368 89.2586 27.5109 89.2586 31.7004C89.2586 36.3694 82.7702 41.5512 75.801 41.5512Z" fill="#61B2AA"/>
        <path d="M115.878 19.1194C116.445 18.6161 113.484 16.4206 111.675 18.2422C111.247 18.6736 108.595 24.5073 108.595 24.5073C108.595 24.5073 102.04 37.7088 99.4647 37.7088C95.3803 37.7088 104.587 21.9763 104.753 19.3255C104.939 16.3775 99.141 17.4848 99.7789 18.1511C101.045 19.4789 93.9902 32.1483 93.9902 36.8699C93.9902 40.048 95.6088 41.5053 98.2984 41.5053C101.645 41.5053 103.64 37.7375 105.591 34.3629C105.306 35.4606 103.697 41.5436 107.081 41.5436C108.971 41.5436 110.095 40.1679 110.095 40.1679C106.777 36.8268 114.884 20.0014 115.878 19.1194Z" fill="#61B2AA"/>
        <path d="M116.96 36.4986C116.96 36.4986 127.966 26.4369 129.546 24.8454C132.659 21.7105 129.903 18.5994 127.732 18.5467C126.704 18.5227 118.174 19.3808 118.478 17.262C118.583 16.543 115.079 20.2916 117.26 22.5781C118.602 23.9826 126.566 21.8015 126.547 22.5158C126.523 23.5847 114.122 33.632 112.171 35.9809C110.481 38.0133 110.633 40.76 114.099 40.8463C116.136 40.899 144.537 41.8098 147.279 39.5329C150.416 36.9252 147.179 33.1814 147.179 33.1814C146.683 36.9396 116.96 36.4986 116.96 36.4986Z" fill="#61B2AA"/>
        <path d="M139.466 19.4902C139.437 20.4393 130.121 27.2366 127.674 29.6909C126.499 30.8701 126.922 33.5305 129.174 33.5689C131.04 33.5976 143.46 33.2669 145.14 31.9247C147.706 29.873 144.769 26.2923 144.769 26.2923C144.379 29.1013 132.049 29.5567 132.049 29.5567C132.049 29.5567 140.913 22.769 142.108 21.5658C144.521 19.1355 143.022 16.6956 140.785 16.3744C140.013 16.2642 131.897 16.7435 132.135 15.1568C132.216 14.62 129.717 17.0695 131.34 19.4087C131.973 20.3387 139.48 18.9533 139.466 19.4902Z" fill="#61B2AA"/>
        <path d="M211.344 1C211.263 5.1608 188.39 3.94324 182.258 3.80902C154.567 3.19545 149.731 14.211 149.602 20.1982C149.497 25.0109 152.791 29.5983 158.623 29.7277C160.927 29.7805 162.841 29.5312 164.345 28.8266V28.8314C164.94 28.5677 165.535 28.2753 166.116 27.935C165.649 28.4958 165.064 28.9416 164.435 29.3107C164.302 29.3922 164.159 29.4689 164.021 29.5408C162.422 33.0784 161.26 36.223 161.041 38.0398C160.351 43.6914 166.911 42.004 166.349 41.4096C165.278 40.2831 166.911 34.9719 169.4 29.1429C170.791 28.0117 175.665 26.9235 177.06 28.3568C177.06 28.3568 178.369 25.5094 177.507 24.6226C176.122 23.1941 173.137 24.0426 171.405 24.7137C174.042 19.2059 177.036 14.048 178.85 12.3032C180.178 11.0233 176.365 10.0071 174.913 11.1623C173.228 12.5093 170.667 16.6893 167.901 21.7752C167.901 21.7752 167.896 21.78 167.896 21.7848C167.715 22.1252 167.53 22.4607 167.349 22.8059C166.325 24.4692 163.864 27.0673 159.518 26.9715C155.876 26.89 153.758 24.3254 153.839 20.5337C153.982 14.048 160.232 8.67447 184.01 9.26888C184.838 7.84519 185.957 6.74747 187.261 6.76185C187.295 6.76185 187.333 6.76185 187.361 6.76664C188.409 6.82896 189.351 7.30352 190.027 8.10884C190.384 8.54026 190.646 9.03878 190.794 9.57566C203.709 10.3762 212.896 11.7519 213.006 5.92777C213.048 3.35843 211.344 1 211.344 1Z" fill="#61B2AA"/>
        <path d="M185.133 16.7392C187.165 16.8782 189.526 12.2045 189.617 10.9246C189.717 9.48172 188.717 8.2306 187.303 8.13473C185.099 7.98613 181.796 16.5091 185.133 16.7392Z" fill="#61B2AA"/>
        <path d="M206.869 15.9404C206.95 16.8176 203.408 16.7073 199.481 16.6306C200.224 15.2597 200.881 14.2291 201.352 13.7305C202.19 12.8485 199.014 11.6453 197.82 12.9012C197.12 13.6394 196.225 14.9433 195.278 16.5971C192.636 16.645 190.37 16.8847 189.575 17.6564C187.118 20.0532 189.841 22.0905 189.841 22.0905C189.794 21.2037 191.198 20.7962 193.216 20.6237C192.578 22.009 191.964 23.4854 191.417 24.9906L191.388 24.9331C191.388 24.9331 185.233 37.5449 181.582 37.4634C177.626 37.3771 185.823 20.1826 186.257 19.7033C186.947 18.9315 183.419 17.4503 182.048 19.0226C181.392 19.78 170.262 40.747 181.02 40.9819C184.186 41.0538 187.166 37.2429 189.294 33.5758C188.88 38.0674 190.093 41.49 194.492 41.5475C201.661 41.6434 206.741 30.0526 206.779 28.2502C206.855 24.7701 204.056 25.7959 204.056 25.7959C205.041 26.8313 198.667 38.6043 194.973 38.5563C190.931 38.5036 194.245 27.929 197.577 20.5086C201.79 20.5517 206.288 20.8346 206.993 20.1443C209.373 17.8338 206.869 15.9404 206.869 15.9404Z" fill="#61B2AA"/>
    </g>
    <defs>
        <clipPath id="clip0">
            <rect width="149" height="44" fill="white" transform="translate(64 1)"/>
        </clipPath>
    </defs>
</svg>

<svg width="213" height="47" fill="none" xmlns="http://www.w3.org/2000/svg"><path fill-rule="evenodd" clip-rule="evenodd" d="M23.753 32.718c-4.899 0-8.965-4.067-8.965-8.965 0-4.899 3.974-8.965 8.965-8.965 4.898 0 8.965 3.974 8.965 8.965 0 4.898-4.067 8.965-8.965 8.965zm0-12.94a3.945 3.945 0 0 0-3.974 3.975 3.945 3.945 0 0 0 3.974 3.974 3.945 3.945 0 0 0 3.974-3.974 3.945 3.945 0 0 0-3.974-3.974z" fill="#61B2AA"/><path fill-rule="evenodd" clip-rule="evenodd" d="M0 23.29c0 18.763 4.529 23.291 23.29 23.291 18.763 0 23.291-4.528 23.291-23.29S42.053 0 23.291 0 0 4.529 0 23.29zm4.99 0c0-15.896 2.404-18.3 18.3-18.3 15.898 0 18.3 2.404 18.3 18.3 0 15.898-2.402 18.3-18.3 18.3-15.896 0-18.3-2.402-18.3-18.3z" fill="#61B2AA"/><g clip-path="url(#clip0)" fill="#61B2AA"><path d="M86.845 25.622s12.882-6.198 12.882-13.575c0-6.692-6.536-8.758-10.635-8.758C77.215 3.29 64 12.435 64 21.332c0 7.919 6.945 6.208 6.945 6.208-.775-.854-1.851-2.733-1.666-5.676.434-6.95 10.487-14.99 19.708-14.99 4.285 0 6.75 1.66 6.75 4.157 0 4.89-11.1 13.402-14.48 13.997 2.67-6.726 5.683-13.35 6.921-14.491.571-.527-2.19-2.104-3.056-1.309-3.532 3.255-12.777 24.884-12.92 28.148-.043 1.026.076 1.769.3 2.306-.714-1.218-.704-2.666-.685-3.145.057-1.275-2.59-2.032-2.59-.537 0 3.221 1.071 8.998 8.892 8.998 7.189 0 15.243-5.94 15.243-11.974.005-6.477-6.517-7.402-6.517-7.402zm-11.044 15.93a3.772 3.772 0 0 1-2.404-.84c1.261.657 3.056-.34 3.056-.34-.552-.609 1.571-7.06 4.204-13.825.242.61.737 1.18 1.509 1.213 1.742.077 7.093-.25 7.093 3.94 0 4.67-6.489 9.851-13.458 9.851zm40.077-22.433c.567-.503-2.394-2.698-4.203-.877-.428.432-3.08 6.265-3.08 6.265s-6.555 13.202-9.13 13.202c-4.085 0 5.122-15.733 5.288-18.384.186-2.947-5.612-1.84-4.974-1.174 1.266 1.328-5.789 13.997-5.789 18.719 0 3.178 1.619 4.635 4.308 4.635 3.347 0 5.342-3.768 7.293-7.142-.285 1.098-1.894 7.18 1.49 7.18 1.89 0 3.014-1.375 3.014-1.375-3.318-3.341 4.789-20.167 5.783-21.049zm1.082 17.38s11.006-10.062 12.586-11.654c3.113-3.134.357-6.246-1.814-6.298-1.028-.024-9.558.834-9.254-1.285.105-.719-3.399 3.03-1.218 5.316 1.342 1.405 9.306-.776 9.287-.062-.024 1.069-12.425 11.116-14.376 13.465-1.69 2.032-1.538 4.779 1.928 4.865 2.037.053 30.438.964 33.18-1.313 3.137-2.608-.1-6.352-.1-6.352-.496 3.759-30.219 3.318-30.219 3.318z"/><path d="M139.466 19.49c-.029.95-9.345 7.747-11.792 10.2-1.175 1.18-.752 3.84 1.5 3.879 1.866.029 14.286-.302 15.966-1.644 2.566-2.052-.371-5.633-.371-5.633-.39 2.81-12.72 3.265-12.72 3.265s8.864-6.788 10.059-7.991c2.413-2.43.914-4.87-1.323-5.192-.772-.11-8.888.37-8.65-1.217.081-.537-2.418 1.913-.795 4.252.633.93 8.14-.456 8.126.081zM211.344 1c-.081 4.16-22.954 2.943-29.086 2.809-27.691-.614-32.527 10.402-32.656 16.39-.105 4.812 3.189 9.4 9.021 9.529 2.304.052 4.218-.197 5.722-.901v.004c.595-.263 1.19-.556 1.771-.896-.467.56-1.052 1.007-1.681 1.376a6.913 6.913 0 0 1-.414.23c-1.599 3.537-2.761 6.682-2.98 8.499-.69 5.651 5.87 3.964 5.308 3.37-1.071-1.127.562-6.438 3.051-12.267 1.391-1.131 6.265-2.22 7.66-.786 0 0 1.309-2.848.447-3.734-1.385-1.429-4.37-.58-6.102.09 2.637-5.507 5.631-10.665 7.445-12.41 1.328-1.28-2.485-2.296-3.937-1.14-1.685 1.346-4.246 5.526-7.012 10.612 0 0-.005.005-.005.01-.181.34-.366.676-.547 1.02-1.024 1.664-3.485 4.262-7.831 4.166-3.642-.081-5.76-2.646-5.679-6.437.143-6.486 6.393-11.86 30.171-11.265.828-1.424 1.947-2.522 3.251-2.507a3.73 3.73 0 0 1 2.766 1.347c.357.431.619.93.767 1.467 12.915.8 22.102 2.176 22.212-3.648.042-2.57-1.662-4.928-1.662-4.928z"/><path d="M185.133 16.74c2.032.138 4.393-4.535 4.484-5.815.1-1.443-.9-2.694-2.314-2.79-2.204-.149-5.507 8.374-2.17 8.604zm21.736-.8c.081.878-3.461.767-7.388.69.743-1.37 1.4-2.4 1.871-2.9.838-.882-2.338-2.085-3.532-.829-.7.738-1.595 2.042-2.542 3.696-2.642.048-4.908.288-5.703 1.06-2.457 2.396.266 4.433.266 4.433-.047-.886 1.357-1.294 3.375-1.466a57.295 57.295 0 0 0-1.799 4.367l-.029-.058s-6.155 12.612-9.806 12.53c-3.956-.086 4.241-17.28 4.675-17.76.69-.771-2.838-2.253-4.209-.68-.656.757-11.786 21.724-1.028 21.959 3.166.072 6.146-3.74 8.274-7.406-.414 4.491.799 7.914 5.198 7.971 7.169.096 12.249-11.494 12.287-13.297.076-3.48-2.723-2.454-2.723-2.454.985 1.035-5.389 12.808-9.083 12.76-4.042-.052-.728-10.627 2.604-18.047 4.213.043 8.711.326 9.416-.365 2.38-2.31-.124-4.204-.124-4.204z"/></g><defs><clipPath id="clip0"><path fill="#fff" transform="translate(64 1)" d="M0 0H149V44H0z"/></clipPath></defs></svg>
